X: 42
T:Grundy's Delight - Moulton
N:Tune as played for Grand Union Morris
N:www.grandunionmorris.co.uk
S:OY (AB)5
M:6/8
L:1/8
K:G
"A" d2 B g2 e |  d2 B G3 | d2 B g2 f | e3 d3  | d2 B g2 e |  d2 B G3 | A
2  d ^cdc | d3  d3 ||
"B" e2 f gfe | c2 d edc | B2 c dcB | B3 A3 |  d2 B g2 e |  d2 B G3 | d2
 g fga | g3 g3 ||
